src/images/header-pattern.svg

<svg viewBox="0 0 586 421" xmlns="http://www.w3.org/2000/svg">
  <g fill="#44D7B6" fill-rule="evenodd">
    <path d="M53 22v21h21v6H53v21h-6V49H26v-6h21V22h6zM101 70v21h21v6h-21v21h-6V97H74v-6h21V70h6z" opacity=".9" />
    <path d="M149 22v21h21v6h-21v21h-6V49h-21v-6h21V22h6z" opacity=".1" />
    <path d="M245 22v21h21v6h-21v21h-6V49h-21v-6h21V22h6z" opacity=".9" />
    <path d="M53 118v21h21v6H53v21h-6v-21H26v-6h21v-21h6z" opacity=".4" />
    <path d="M101 166v21h21v6h-21v21h-6v-21H74v-6h21v-21h6zM341 118v21h21v6h-21v21h-6v-21h-21v-6h21v-21h6z"
      opacity=".6" />
    <path d="M149 118v21h21v6h-21v21h-6v-21h-21v-6h21v-21h6z" opacity=".7" />
    <path d="M293 70v21h21v6h-21v21h-6V97h-21v-6h21V70h6zM437 22v21h21v6h-21v21h-6V49h-21v-6h21V22h6z" opacity=".9" />
    <path d="M197 70v21h21v6h-21v21h-6V97h-21v-6h21V70h6z" opacity=".6" />
    <path d="M149 214v21h21v6h-21v21h-6v-21h-21v-6h21v-21h6zM197 166v21h21v6h-21v21h-6v-21h-21v-6h21v-21h6z"
      opacity=".9" />
    <path d="M389 70v21h21v6h-21v21h-6V97h-21v-6h21V70h6z" opacity=".7" />
    <path d="M149 310v21h21v6h-21v21h-6v-21h-21v-6h21v-21h6z" opacity=".6" />
    <path d="M197 358v21h21v6h-21v21h-6v-21h-21v-6h21v-21h6z" opacity=".9" />
    <path d="M197 358v21h21v6h-21v21h-6v-21h-21v-6h21v-21h6zM245 310v21h21v6h-21v21h-6v-21h-21v-6h21v-21h6z"
      opacity=".9" />
    <path d="M245 310v21h21v6h-21v21h-6v-21h-21v-6h21v-21h6z" opacity=".1" />
    <path d="M53 214v21h21v6H53v21h-6v-21H26v-6h21v-21h6z" opacity=".9" />
    <path
      d="M101 262v21h21v6h-21v21h-6v-21H74v-6h21v-21h6zM341 22v21h21v6h-21v21h-6V49h-21v-6h21V22h6zM437 118v21h21v6h-21v21h-6v-21h-21v-6h21v-21h6zM533 22v21h21v6h-21v21h-6V49h-21v-6h21V22h6z"
      opacity=".4" />
    <path d="M53 310v21h21v6H53v21h-6v-21H26v-6h21v-21h6z" opacity=".9" />
    <path d="M101 358v21h21v6h-21v21h-6v-21H74v-6h21v-21h6z" opacity=".4" />
  </g>
</svg>

<svg viewBox="0 0 586 421" xmlns="http://www.w3.org/2000/svg">
    <g stroke="none" stroke-width="1" fill="none" fill-rule="evenodd">
        <path d="M53,22 L53,43 L74,43 L74,49 L53,49 L53,70 L47,70 L47,49 L26,49 L26,43 L47,43 L47,22 L53,22 Z" fill="#44D7B6" opacity="0.9"></path>
        <path d="M101,70 L101,91 L122,91 L122,97 L101,97 L101,118 L95,118 L95,97 L74,97 L74,91 L95,91 L95,70 L101,70 Z" fill="#44D7B6" opacity="0.9"></path>
        <path d="M149,22 L149,43 L170,43 L170,49 L149,49 L149,70 L143,70 L143,49 L122,49 L122,43 L143,43 L143,22 L149,22 Z" fill="#44D7B6" opacity="0.1"></path>
        <path d="M245,22 L245,43 L266,43 L266,49 L245,49 L245,70 L239,70 L239,49 L218,49 L218,43 L239,43 L239,22 L245,22 Z" fill="#44D7B6" opacity="0.9"></path>
        <path d="M53,118 L53,139 L74,139 L74,145 L53,145 L53,166 L47,166 L47,145 L26,145 L26,139 L47,139 L47,118 L53,118 Z" fill="#44D7B6" opacity="0.4"></path>
        <path d="M101,166 L101,187 L122,187 L122,193 L101,193 L101,214 L95,214 L95,193 L74,193 L74,187 L95,187 L95,166 L101,166 Z" fill="#44D7B6" opacity="0.6"></path>
        <path d="M341,118 L341,139 L362,139 L362,145 L341,145 L341,166 L335,166 L335,145 L314,145 L314,139 L335,139 L335,118 L341,118 Z" fill="#44D7B6" opacity="0.6"></path>
        <path d="M149,118 L149,139 L170,139 L170,145 L149,145 L149,166 L143,166 L143,145 L122,145 L122,139 L143,139 L143,118 L149,118 Z" fill="#44D7B6" opacity="0.7"></path>
        <path d="M293,70 L293,91 L314,91 L314,97 L293,97 L293,118 L287,118 L287,97 L266,97 L266,91 L287,91 L287,70 L293,70 Z" fill="#44D7B6" opacity="0.9"></path>
        <path d="M437,22 L437,43 L458,43 L458,49 L437,49 L437,70 L431,70 L431,49 L410,49 L410,43 L431,43 L431,22 L437,22 Z" fill="#44D7B6" opacity="0.9"></path>
        <path d="M197,70 L197,91 L218,91 L218,97 L197,97 L197,118 L191,118 L191,97 L170,97 L170,91 L191,91 L191,70 L197,70 Z" fill="#44D7B6" opacity="0.6"></path>
        <path d="M149,214 L149,235 L170,235 L170,241 L149,241 L149,262 L143,262 L143,241 L122,241 L122,235 L143,235 L143,214 L149,214 Z" fill="#44D7B6" opacity="0.9"></path>
        <path d="M197,166 L197,187 L218,187 L218,193 L197,193 L197,214 L191,214 L191,193 L170,193 L170,187 L191,187 L191,166 L197,166 Z" fill="#44D7B6" opacity="0.9"></path>
        <path d="M389,70 L389,91 L410,91 L410,97 L389,97 L389,118 L383,118 L383,97 L362,97 L362,91 L383,91 L383,70 L389,70 Z" fill="#44D7B6" opacity="0.7"></path>
        <path d="M149,310 L149,331 L170,331 L170,337 L149,337 L149,358 L143,358 L143,337 L122,337 L122,331 L143,331 L143,310 L149,310 Z" fill="#44D7B6" opacity="0.6"></path>
        <path d="M197,358 L197,379 L218,379 L218,385 L197,385 L197,406 L191,406 L191,385 L170,385 L170,379 L191,379 L191,358 L197,358 Z" fill="#44D7B6" opacity="0.9"></path>
        <path d="M197,358 L197,379 L218,379 L218,385 L197,385 L197,406 L191,406 L191,385 L170,385 L170,379 L191,379 L191,358 L197,358 Z" fill="#44D7B6" opacity="0.9"></path>
        <path d="M245,310 L245,331 L266,331 L266,337 L245,337 L245,358 L239,358 L239,337 L218,337 L218,331 L239,331 L239,310 L245,310 Z" fill="#44D7B6" opacity="0.9"></path>
        <path d="M245,310 L245,331 L266,331 L266,337 L245,337 L245,358 L239,358 L239,337 L218,337 L218,331 L239,331 L239,310 L245,310 Z" fill="#44D7B6" opacity="0.1"></path>
        <path d="M53,214 L53,235 L74,235 L74,241 L53,241 L53,262 L47,262 L47,241 L26,241 L26,235 L47,235 L47,214 L53,214 Z" fill="#44D7B6" opacity="0.9"></path>
        <path d="M101,262 L101,283 L122,283 L122,289 L101,289 L101,310 L95,310 L95,289 L74,289 L74,283 L95,283 L95,262 L101,262 Z" fill="#44D7B6" opacity="0.4"></path>
        <path d="M341,22 L341,43 L362,43 L362,49 L341,49 L341,70 L335,70 L335,49 L314,49 L314,43 L335,43 L335,22 L341,22 Z" fill="#44D7B6" opacity="0.4"></path>
        <path d="M437,118 L437,139 L458,139 L458,145 L437,145 L437,166 L431,166 L431,145 L410,145 L410,139 L431,139 L431,118 L437,118 Z" fill="#44D7B6" opacity="0.4"></path>
        <path d="M533,22 L533,43 L554,43 L554,49 L533,49 L533,70 L527,70 L527,49 L506,49 L506,43 L527,43 L527,22 L533,22 Z" fill="#44D7B6" opacity="0.4"></path>
        <path d="M53,310 L53,331 L74,331 L74,337 L53,337 L53,358 L47,358 L47,337 L26,337 L26,331 L47,331 L47,310 L53,310 Z" fill="#44D7B6" opacity="0.9"></path>
        <path d="M101,358 L101,379 L122,379 L122,385 L101,385 L101,406 L95,406 L95,385 L74,385 L74,379 L95,379 L95,358 L101,358 Z" fill="#44D7B6" opacity="0.4"></path>
    </g>
</svg>
